devoot-frontend/vue-project/src/assets/icons/pagenation_last.svg

<svg viewBox="0 0 16 16" fill="none" xmlns="http://www.w3.org/2000/svg">
<path id="Vector" d="M4.2735 4L3.3335 4.94L6.38683 8L3.3335 11.06L4.2735 12L8.2735 8L4.2735 4Z" fill="currentColor"/>
<path id="Vector_2" d="M8.66656 4L7.72656 4.94L10.7799 8L7.72656 11.06L8.66656 12L12.6666 8L8.66656 4Z" fill="currentColor"/>
</svg>

<svg xmlns="http://www.w3.org/2000/svg" width="16" height="16" fill="none" viewBox="0 0 16 16">
  <path fill="#000" d="m4.274 4-.94.94L6.386 8l-3.053 3.06.94.94 4-4-4-4Z"/>
  <path fill="#000" d="m8.667 4-.94.94L10.78 8l-3.053 3.06.94.94 4-4-4-4Z"/>
</svg>
